X: 1681
T: the Spring Garden   #2
R: hornpipe, reel
%S: s:4 b:13(5+4+4)
B: O'Neill's 1850 #1681
O: J.O'Neill
M: 2/4
L: 1/16
K: G
(3ABc \
| dfdf ecAF | GFGB AFDC | B,DGF [1,3 D2(cB) | (3ABG (3FGE D2 :|[2,4 EcAF | G2G2 G2 :|
|: (cB) |\
| AGAB cBcd | edef g2 (3def | gfed cBAG | Add^c d2 (3ABc |
| dfdf ecAF | GFGB AFDC | B,DGF DcAF | G2G2 G2 :|
